X:1
T:1
T:7 
T:3 Verses
T:Transpose to D (-1) if too high
%%score { 1 | 2 }
L:1/8
M:9/8
K:Eb
V:1 treble nm="Piano" snm="Pno."
V:2 bass 
V:1
"^This measure duration\nhas been changed to 3/8\n" [B,E][B,F][B,D] | %1
 ([B,E]3 B,2) [B,E] ([EG]A)[EG] | [EG]3 E3 [GB][Ac][GB] | [GB]3- [GB]2 [EG] [EF]2 E | %4
 [DB]3- [DB]2 z [B,E][B,F][B,D] | [B,E]3 B,3 [EG][EA][EG] | [EG]3 E3 [GB][Ac][GB] | %7
 [GB]3- [GB]2 E [EG]2 [DF] | E3- E2 z [GB][Ac][GB] | [Ge]3 [GB]3 ([EG]F)E | %10
 [DB]3- [DB]2 z [GB][Ac][GB] | [Ge]3 [GB]3 [EG][EF]E | [DF]3- [DF]2 z ([B,E]F)[B,D] | %13
 [B,E]3 B,3 ([EG]A)[EG] | [EG]3 E2 [GB] [Ac]2 [GB] | [GB]3- [GB]2 E [EG]2 [DF] | %16
"^This measure duration\nhas been changed to 6/8\n" E3- E3 |] %17
V:2
 [E,G,][E,B,][E,B,] | [E,G,]3- [E,G,]2 [E,G,] ([E,B,]C)[E,B,] | [E,B,]3 [E,G,]3 [E,E][E,E][E,E] | %3
 [E,E]3- [E,E]2 [E,B,] [D,B,]2 [C,G,] | [B,,B,]3- [B,,B,]2 z [E,G,][E,B,][E,B,] | %5
 [E,G,]3 [E,G,]3 [E,B,][E,C][E,B,] | [E,B,]3 [E,G,]3 [E,E][E,E][E,E] | %7
 [E,E]3- [E,E]2 [C,G,] [B,,B,]2 [B,,A,] | [E,G,]3- [E,G,]2 z [E,E][E,E][E,E] | %9
 [E,B,]3 [E,E]3 ([E,B,]D,)[C,G,] | [B,,B,]3- [B,,B,]2 z [E,B,][E,B,][E,B,] | %11
 [E,B,]3 [E,E]3 [E,B,][D,B,][C,G,] | [B,,B,]3- [B,,B,]2 z ([E,G,]A,)[E,A,] | %13
 [E,G,]3 [E,G,]3 ([E,B,]C)[E,B,] | [E,B,]3 [E,G,]2 [E,E] [E,E]2 [E,E] | %15
 [E,E]3- [E,E]2 [C,G,] [B,,B,]2 [B,,A,] | [E,G,]3- [E,G,]3 |] %17

